X:1
T:Page
T:G. M. Garrett
T:Page
C:G. M. Garrett
%%score { ( 1 2 ) | ( 3 4 ) }
L:1/8
Q:1/4=180
M:3/2
K:Ab
V:1 treble nm="Piano" snm="Pno."
V:2 treble 
V:3 bass 
V:4 bass 
V:1
 A4 | A8 A4 | c8 B4 | A8 d4 | c12 | c4 c4 c4 | e8 c4 | (B4 G4) F4 | E12 | B4 B4 B4 | e8 d4 | %11
 c8 c4 | d12 | B4 B4 B4 | e8 c4 | B8 B4 | A12 |] %17
V:2
 E4 | (E4 D4) C4 | G8 G4 | F8 E4 | E12 | E4 E4 E4 | _G8 ^F4 | (G4 E4) =D4 | E12 | E4 E4 E4 | %10
 _G8 F4 | E8 F4 | F12 | F4 F4 F4 | E8 (E2 A2) | (A4 G4) G4 | E12 |] %17
V:3
 C4 | (C4 B,4) C4 | E8 D4 | C8 B,4 | C12 | C4 C4 C4 | C8 (=D2 E2) | (E4 B,4) A,4 | G,12 | %9
 G,4 G,4 G,4 | =A,8 B,4 | B,8 =A,4 | B,12 | D4 D4 D4 | B,8 C4 | E8 D4 | C12 |] %17
V:4
 A,4 | A,8 A,4 | E,8 E,4 | F,8 G,4 | A,12 | A,4 A,4 A,4 | A,,8 =A,,4 | B,,8 B,,4 | E,12 | %9
 E,4 E,4 D,4 | C,8 D,4 | _G,8 F,4 | B,,12 | B,,4 B,4 B,4 | G,8 A,4 | E,8 E,4 | A,,12 |] %17

